src/controls/assets/mappable-compass_hover.svg

<svg width="54" height="54" viewBox="0 0 54 54" fill="none" xmlns="http://www.w3.org/2000/svg">
<g id="Frame 13">
<path id="Rectangle 37131" d="M28.036 52.6398C28.0156 52.8443 27.8435 53 27.638 53L26.362 53C26.1565 53 25.9844 52.8443 25.964 52.6398L25.544 48.4398C25.5204 48.2043 25.7053 48 25.942 48L28.058 48C28.2947 48 28.4796 48.2043 28.456 48.4398L28.036 52.6398Z" fill="#34374A"/>
<g id="Group 8">
<path id="Rectangle 37129" d="M52.6398 25.964C52.8443 25.9844 53 26.1565 53 26.362L53 27.638C53 27.8435 52.8443 28.0156 52.6398 28.036L48.4398 28.456C48.2043 28.4796 48 28.2947 48 28.058L48 25.942C48 25.7053 48.2043 25.5204 48.4398 25.544L52.6398 25.964Z" fill="#34374A"/>
<path id="Rectangle 37130" d="M5.5602 25.544C5.79567 25.5204 6 25.7053 6 25.942L6 28.058C6 28.2947 5.79567 28.4796 5.5602 28.456L1.3602 28.036C1.15572 28.0156 1 27.8435 1 27.638L1 26.362C1 26.1565 1.15572 25.9844 1.3602 25.964L5.5602 25.544Z" fill="#34374A"/>
</g>
<g id="Group 11">
<path id="Rectangle 37129_2" d="M37.634 6.58142C37.9102 6.10313 38.5218 5.93925 39.0001 6.21539C39.4784 6.49154 39.6422 7.10313 39.3661 7.58142C39.0899 8.05971 38.4784 8.22359 38.0001 7.94744C37.5218 7.6713 37.3579 7.05971 37.634 6.58142Z" fill="#C8C9CC"/>
<path id="Rectangle 37130_2" d="M14.634 46.4186C14.9102 45.9403 15.5218 45.7764 16.0001 46.0526C16.4784 46.3287 16.6422 46.9403 16.3661 47.4186C16.0899 47.8969 15.4784 48.0607 15.0001 47.7846C14.5218 47.5085 14.3579 46.8969 14.634 46.4186Z" fill="#C8C9CC"/>
</g>
<g id="Group 12">
<path id="Rectangle 37129_3" d="M46.4186 14.634C46.8969 14.3578 47.5085 14.5217 47.7847 15C48.0608 15.4783 47.8969 16.0899 47.4186 16.366C46.9403 16.6422 46.3288 16.4783 46.0526 16C45.7765 15.5217 45.9403 14.9101 46.4186 14.634Z" fill="#C8C9CC"/>
<path id="Rectangle 37130_3" d="M6.58148 37.634C7.05978 37.3578 7.67137 37.5217 7.94751 38C8.22365 38.4783 8.05978 39.0899 7.58148 39.366C7.10319 39.6422 6.4916 39.4783 6.21546 39C5.93932 38.5217 6.10319 37.9101 6.58148 37.634Z" fill="#C8C9CC"/>
</g>
<g id="Group 13">
<path id="Rectangle 37129_4" d="M47.4186 37.634C47.8969 37.9101 48.0608 38.5217 47.7847 39C47.5085 39.4783 46.8969 39.6422 46.4186 39.366C45.9404 39.0899 45.7765 38.4783 46.0526 38C46.3288 37.5217 46.9403 37.3578 47.4186 37.634Z" fill="#C8C9CC"/>
<path id="Rectangle 37130_4" d="M7.58148 14.634C8.05978 14.9101 8.22365 15.5217 7.94751 16C7.67137 16.4783 7.05978 16.6422 6.58148 16.366C6.10319 16.0899 5.93932 15.4783 6.21546 15C6.4916 14.5217 7.10319 14.3578 7.58148 14.634Z" fill="#C8C9CC"/>
</g>
<g id="Group 14">
<path id="Rectangle 37129_5" d="M39.3661 46.4186C39.6422 46.8969 39.4784 47.5085 39.0001 47.7846C38.5218 48.0607 37.9102 47.8969 37.634 47.4186C37.3579 46.9403 37.5218 46.3287 38.0001 46.0526C38.4784 45.7764 39.0899 45.9403 39.3661 46.4186Z" fill="#C8C9CC"/>
<path id="Rectangle 37130_5" d="M16.3661 6.58142C16.6422 7.05972 16.4784 7.67131 16.0001 7.94745C15.5218 8.22359 14.9102 8.05972 14.634 7.58142C14.3579 7.10313 14.5218 6.49154 15.0001 6.2154C15.4784 5.93926 16.0899 6.10313 16.3661 6.58142Z" fill="#C8C9CC"/>
</g>
<path id="Vector 593 (Stroke)" fill-rule="evenodd" clip-rule="evenodd" d="M26.668 0.49411C26.8265 0.25823 27.1735 0.25823 27.332 0.494111L30.8159 5.67901C30.9228 5.83806 30.9019 6.05056 30.766 6.1857L30.1811 6.76744C30.0454 6.90249 29.8329 6.92236 29.6744 6.81483L27.3369 5.22862C27.1335 5.09059 26.8665 5.09059 26.6631 5.22862L24.3256 6.81483C24.1671 6.92236 23.9546 6.90249 23.8189 6.76744L23.234 6.1857C23.0981 6.05056 23.0772 5.83806 23.1841 5.67901L26.668 0.49411Z" fill="#F55159"/>
</g>
</svg>

<svg xmlns="http://www.w3.org/2000/svg" width="54" height="54" fill="none"><path fill="#34374A" d="M28.036 52.64a.4.4 0 0 1-.398.36h-1.276a.4.4 0 0 1-.398-.36l-.42-4.2a.4.4 0 0 1 .398-.44h2.116a.4.4 0 0 1 .398.44z"/><g fill="#34374A"><path d="M52.64 25.964a.4.4 0 0 1 .36.398v1.276a.4.4 0 0 1-.36.398l-4.2.42a.4.4 0 0 1-.44-.398v-2.116a.4.4 0 0 1 .44-.398zM5.56 25.544a.4.4 0 0 1 .44.398v2.116a.4.4 0 0 1-.44.398l-4.2-.42a.4.4 0 0 1-.36-.398v-1.276a.4.4 0 0 1 .36-.398z"/></g><g fill="#C8C9CC"><path d="M37.634 6.581a1 1 0 1 1 1.732 1 1 1 0 0 1-1.732-1M14.634 46.419a1 1 0 1 1 1.732 1 1 1 0 0 1-1.732-1"/></g><g fill="#C8C9CC"><path d="M46.419 14.634a1 1 0 1 1 1 1.732 1 1 0 0 1-1-1.732M6.581 37.634a1 1 0 1 1 1 1.732 1 1 0 0 1-1-1.732"/></g><g fill="#C8C9CC"><path d="M47.419 37.634a1 1 0 1 1-1 1.732 1 1 0 0 1 1-1.732M7.581 14.634a1 1 0 1 1-1 1.732 1 1 0 0 1 1-1.732"/></g><g fill="#C8C9CC"><path d="M39.366 46.419a1 1 0 1 1-1.732 1 1 1 0 0 1 1.732-1M16.366 6.581a1 1 0 1 1-1.732 1 1 1 0 0 1 1.732-1"/></g><path fill="#F55159" fill-rule="evenodd" d="M26.668.494a.4.4 0 0 1 .664 0l3.484 5.185a.4.4 0 0 1-.05.507l-.585.581a.4.4 0 0 1-.507.048l-2.337-1.586a.6.6 0 0 0-.674 0l-2.337 1.586a.4.4 0 0 1-.507-.048l-.585-.581a.4.4 0 0 1-.05-.507z" clip-rule="evenodd"/></svg>
